actions/symbolic/font-select-symbolic.svg

<svg viewBox="0 0 16 16" xmlns="http://www.w3.org/2000/svg"><path d="m6.5000002 5v1.4941634h2.1796875c-.0414 0 .070312.1277786.070312.070038v.7003891h-.75c-1.2869101 0-2.2784026.8291562-2.296875 1.8443581-.00923.5076013.2396255 1.0109744.6562505 1.3540874.4166249.34311.9821925.536964 1.640625.536964h1.5.7499998v-.747082-3.6887157c0-.8672064-.6613423-1.5522557-1.5468748-1.5642023h-.023438-2.1796875zm-4.5000002 1.4941634v4.4824896l3.0000001-2.2412444zm12 0-3 2.2412452 3 2.2412444zm-5.9999998 2.2645915h.75v.7470817h-.75c-.3895575 0-.5850825-.1088603-.6796875-.1867705-.094605-.0779101-.1181625-.1330082-.1171875-.1867704.0022499-.1075238.069525-.3735408.796875-.3735408z" fill="#bebebe"/></svg>

<?xml version="1.0" encoding="UTF-8" standalone="no"?>
<svg
   xmlns:dc="http://purl.org/dc/elements/1.1/"
   xmlns:cc="http://creativecommons.org/ns#"
   xmlns:rdf="http://www.w3.org/1999/02/22-rdf-syntax-ns#"
   xmlns:svg="http://www.w3.org/2000/svg"
   xmlns="http://www.w3.org/2000/svg"
   xmlns:sodipodi="http://sodipodi.sourceforge.net/DTD/sodipodi-0.dtd"
   xmlns:inkscape="http://www.inkscape.org/namespaces/inkscape"
   viewBox="0 0 16 16"
   id="svg2"
   version="1.1"
   inkscape:version="0.91 r13725"
   sodipodi:docname="font-select-symbolic.svg">
  <metadata
     id="metadata10">
    <rdf:RDF>
      <cc:Work
         rdf:about="">
        <dc:format>image/svg+xml</dc:format>
        <dc:type
           rdf:resource="http://purl.org/dc/dcmitype/StillImage" />
      </cc:Work>
    </rdf:RDF>
  </metadata>
  <sodipodi:namedview
     pagecolor="#ffffff"
     bordercolor="#666666"
     borderopacity="1"
     objecttolerance="10"
     gridtolerance="10"
     guidetolerance="10"
     inkscape:pageopacity="0"
     inkscape:pageshadow="2"
     inkscape:window-width="640"
     inkscape:window-height="480"
     id="namedview8"
     showgrid="false"
     inkscape:zoom="39.8125"
     inkscape:cx="5.0863422"
     inkscape:cy="8"
     inkscape:current-layer="svg2" />
  <defs
     id="defs3051">
    <style
       type="text/css"
       id="current-color-scheme">
      .ColorScheme-Text {
        color:#bebebe;
      }
      </style>
  </defs>
  <path
     style="color:#bebebe;fill:currentColor;fill-opacity:1;stroke:none"
     class="ColorScheme-Text"
     d="m 6.5000002,5 0,1.4941634 2.1796875,0 c -0.0414,0 0.070312,0.1277786 0.070312,0.070038 l 0,0.7003891 -0.75,0 c -1.2869101,0 -2.2784026,0.8291562 -2.296875,1.8443581 -0.00923,0.5076013 0.2396255,1.0109744 0.6562505,1.3540874 C 6.7760001,10.806146 7.3415677,11 8.0000002,11 l 1.5,0 0.7499998,0 0,-0.747082 0,-3.6887157 C 10.25,5.6969959 9.5886577,5.0119466 8.7031252,5 L 8.6796872,5 6.4999997,5 Z M 2,6.4941634 2,10.976653 5.0000001,8.7354086 2,6.4941634 Z m 12,0 -3,2.2412452 3,2.2412444 0,-4.4824896 z m -5.9999998,2.2645915 0.75,0 0,0.7470817 -0.75,0 c -0.3895575,0 -0.5850825,-0.1088603 -0.6796875,-0.1867705 C 7.2257077,9.241156 7.2021502,9.1860579 7.2031252,9.1322957 7.2053751,9.0247719 7.2726502,8.7587549 8.0000002,8.7587549 Z"
     id="path6"
     inkscape:connector-curvature="0" />
</svg>
